X:1
T:Vexilla Regis 2
T:André Vierendeels
T:(21/02/18)
T:Early melody based on plainchant
T:Vexilla Regis 2
T:ad voces aequales
T:©
T:©
T:©
C:André Vierendeels
Z:©
%%score [ 1 2 3 4 ]
L:1/8
Q:1/4=120
M:2/2
K:C
V:1 treble-8 nm="Tenor 1" snm="T 1"
V:2 treble-8 nm="Tenor 2" snm="T 2"
V:3 treble-8 nm="Tenor 3" snm="T 3"
V:4 bass nm="Bass" snm="B"
V:1
 z4 c4 | d4 e2 f2 | e4 d4 | c4 B4 | !fermata!A4 d4 | d4 e4 | c4 A4 | B4 ^G4 | !fermata!A4 A2 B2 | %9
w: Ve-|xil- la _|Re- gis|pro- de-|unt, ful-|get cru-|cis my-|ste- ri-|um, quo _|
w: Quae|vul- ne- *|ra- ta|lan- ce-|ae, mu-|cro- ne|di- ro|cri- mi-|num, ut _|
w: Im-|ple- ta _|sunt quae|con- ci-|nit Da-|vid fi-|de- li|car- mi-|ne, di- *|
 c4 A4 | G4 c2 d2 | e4 d4 | !fermata!c4 e4 | d4 e4 | c4 A2 B2 | c4 B4 | !fermata!A8 |] d4 e4 | %18
w: car- ne|car- nis _|con- di|tor, sus-|pen- sus|est pa _|ti- bu-|lo.|A- *|
w: nos la-|ve- runt _|sor- di-|bus, man-|da- vit|un- da et|san- gui-|ne.||
w: cen- do|na- ti- *|o- ni-|bus, re-|gna- vit|a- li- *|gno De-|us.||
 !fermata!c8 |] %19
w: men.|
w: |
w: |
V:2
 z4 A4 | B4 c4 | c4 B4 | A4 E4 | !fermata!A4 A4 | A4 c4 | A4 c4 | B4 B4 | !fermata!A4 e4 | %9
w: Ve-|xil- la|Re- gis|pro- de-|unt, ful-|get cru-|cis my-|ste- ri-|um, quo|
w: Quae|vul- ne-|ra- ta|lan- ce-|ae, mu-|cro- ne|di- ro|cri- mi-|num, ut|
w: Im-|le- ta|sunt quae|con- ci-|nit Da-|vid fi-|de- li|car- mi-|ne, di-|
 A4 E2 A2 | d4 e2 d2 | c4 A2 B2 | !fermata!c4 c4 | A4 c4 | A2 G2 F4 | G2 A4 ^G2 | !fermata!E8 |] %17
w: car- ne _|car- nis _|sor- di- *|tor, sus-|pen- sus|est _ pa-|ti- * bu-|lo,|
w: nos la- *|ve- runt _|sor- di- *|bus, man-|da- vit|un- da et|sa- * gui-|ne.|
w: cen- do _|na- ti- *|o- ni- *|bus re-|gna- vit|a- * li-|gno _ De-|us.|
 A4 B4 | !fermata!A8 |] %19
w: A- *|men.|
w: ||
w: ||
V:3
 z4 E4 | G4 G2 A2 | A2 G4 D2 | E4 A2 ^G2 | !fermata!E4 F4 | D4 G4 | F4 CDEF | A2 G^F E4 | %8
w: Ve-|xil- la _|Re- * gis|pro- de- *|unt, ful-|get cru-|cis my- * * *|ste- * * ri-|
w: Quae|vul- ne- *|ra- * ta|lan- ce- *|ae, mu-|cro- ne|di- ro _ _ _|cri- * * mi-|
w: Im-|ple- ta _|sunt _ quae|con- ci- *|nit, Da-|vid fi-|de- li _ _ _|car _ _ mi-|
 !fermata!E4 E4 | E4 C2 D2 | B4 A2 B2 | G4 F2 G2 | !fermata!A4 E2 G2 | G2 F2 G4 | E4 D2 D2 | %15
w: um, quo|car- ne _|car- nis _|con- di- *|tor, sus- *|pen- * sus|est pa- *|
w: num, ut|nos la- *|ve- runt _|sor- di- *|bus, man- *|da- * vit|un- da et|
w: ne, di-|cen- do _|na- ti- *|o- ni- *|bus, re- *|gna- * vit|a- * li-|
 E4 E4 | !fermata!C8 |] A6 ^G2 | !fermata!A8 |] %19
w: ti- bu-|lo.|A- *|men.|
w: san- gui-|ne.|||
w: gno De-|us.|||
V:4
 z4 A,,4 | G,,4 C,2 F,,2 | A,,2 E,2 B,,4 | C,4 E,4 | !fermata!A,,4 D,4 | F,,2 G,,2 C,4 | %6
w: Ve-|xil- la _|Re- * gis|pro- de-|unt, ful-|get _ cru-|
w: Quae|vul- ne- *|ra- * ta|lan- ce-|ae, mu-|cro- * ne|
w: Im-|ple- ta _|sunt _ quae|con- ci-|nit, Da-|vid _ fi-|
 F,,4 A,,4 | E,4 E,,4 | !fermata!A,,4 A,,2 G,,2 | A,,4 A,,4 | G,,4 A,,2 G,,2 | C,4 D,4 | %12
w: cis my-|ste- ri-|um, quo _|car- ne|car- nis _|con- di-|
w: di- ro|cri- mi-|num, ut _|nos la-|ve- runt _|sor- di-|
w: de- li|car- mi-|ne, di- *|cen- do|na- ti- *|o- ni-|
 !fermata!A,,4 C,4 | D,4 C,4 | A,,2 C,2 D,2 G,,2 | C,2 A,,2 E,4 | A,,8 |] A,,4 E,4 | %18
w: tor, sus-|pen- sus|est _ pa- *|ti- * bu-|lo.|A- *|
w: bus, man-|da- vit|un- * da et|san- * gui-|ne.||
w: bus, re-|gna- vit|a- * * *|li- gno De-|us.||
 !fermata!A,,8 |] %19
w: men.|
w: |
w: |

